X: 78
M: C
L: 1/8
K: G
|:\
d2B2 BcdB | c2A2 A4 | B2G2 GABc | d2D2 D4 |\
d2B2 BcdB | c2A2 A2c2 | {c}B2AG FGAF | G4 G4 :|
|:\
d2B2 BcdB | c2A2 A4 | B2G2 GABc | d2D2 D4 |\
d2B2 BcdB | c2A2 A2c2 | {c}B2AG FGAF | G4 G4 :|


